lib/logo_tmp/nrk-logo-nrk-jazz-title-below-on-light.svg

<svg width="35" height="41" viewBox="0 0 35 41" fill="none" xmlns="http://www.w3.org/2000/svg">
<path d="M0 17.9982V5.99926H3.93719V17.9982H0ZM9.29381 7.90895L11.5581 17.9982H7.24917L4.54549 5.99926H6.96218C7.51635 5.99207 8.05406 6.18742 8.4745 6.54856C8.89562 6.89455 9.18495 7.37487 9.29381 7.90895ZM12.1495 17.9982V5.99926H16.0867V17.9982H12.1495ZM19.0605 10.5623C18.6362 10.5664 18.2188 10.4554 17.8525 10.2411C17.4912 10.0323 17.1911 9.73213 16.9823 9.37077C16.7678 9.0045 16.6568 8.58693 16.661 8.16249C16.6561 7.74063 16.7672 7.32555 16.9823 6.9626C17.1933 6.60516 17.4931 6.30826 17.8525 6.10069C18.2189 5.88667 18.6362 5.77568 19.0605 5.77955C19.4822 5.77501 19.8971 5.8861 20.2602 6.10069C20.616 6.31008 20.9127 6.60673 21.122 6.9626C21.3368 7.32565 21.4479 7.74066 21.4433 8.16249C21.4473 8.5869 21.3363 9.0044 21.122 9.37077C20.9149 9.73054 20.6179 10.0304 20.2602 10.2411C19.8971 10.4561 19.4819 10.5673 19.0599 10.5623H19.0605ZM22.0516 17.9982V5.99926H25.9892V17.9982H22.0516ZM30.9737 12.5564C30.9848 12.568 31.0693 12.7061 31.2272 12.9704C31.3851 13.2348 31.5906 13.5729 31.8439 13.9845C32.0974 14.3959 32.3649 14.8324 32.6463 15.2942C32.9278 15.7559 33.1926 16.1925 33.4408 16.6039C33.6881 17.0154 33.9697 17.4801 34.2857 17.9982H29.9598C29.6893 17.5588 29.4441 17.1616 29.2245 16.8067C29.0048 16.4518 28.7713 16.0688 28.5238 15.6575C28.2758 15.2467 28.0306 14.8467 27.7882 14.4576C27.5458 14.0686 27.3375 13.7278 27.1633 13.4352C26.9883 13.1425 26.8671 12.9453 26.7997 12.8437C26.6325 12.5916 26.5336 12.3005 26.5127 11.9987C26.5294 11.7091 26.6226 11.4291 26.7828 11.1873C26.8504 11.0746 26.9743 10.8746 27.1545 10.5873C27.3348 10.3 27.546 9.95922 27.7882 9.56489C28.0304 9.17056 28.2756 8.76777 28.5238 8.35654C28.772 7.94531 29.0056 7.5594 29.2245 7.19887C29.4445 6.83872 29.6897 6.43876 29.9598 5.99898H34.2857L30.9396 11.4577C30.8361 11.6197 30.7777 11.8065 30.7706 11.9987C30.7818 12.2005 30.8522 12.3945 30.9731 12.5564H30.9737Z" fill="#0A2343"/>
<path d="M3.26622 32.2758C3.26936 32.472 3.23511 32.667 3.16524 32.8503C3.10199 33.013 3.00433 33.1599 2.87902 33.2811C2.74887 33.4033 2.59371 33.4956 2.4244 33.5515C2.22889 33.6159 2.02409 33.6473 1.81832 33.6444C1.68363 33.6444 1.55733 33.6387 1.43947 33.6275C1.32162 33.6162 1.20376 33.6021 1.08591 33.5852C0.968054 33.5684 0.850265 33.5485 0.732411 33.5258C0.614556 33.5031 0.493885 33.4779 0.370419 33.4501C0.246952 33.4219 0.123466 33.3909 0 33.3571L0.134685 34.8777C0.291824 34.9228 0.443384 34.9649 0.589299 35.0042C0.735214 35.0439 0.881077 35.0774 1.02699 35.1058C1.17724 35.1343 1.32906 35.154 1.48161 35.1647C1.63874 35.1759 1.81268 35.1816 2.00349 35.1818C2.39272 35.188 2.78093 35.1396 3.15681 35.0379C3.46342 34.9544 3.75178 34.8141 4.00706 34.6243C4.23724 34.4501 4.43406 34.2354 4.58793 33.9907C4.74087 33.7452 4.85447 33.4772 4.92464 33.1964C4.99864 32.9009 5.03538 32.5972 5.03405 32.2925V23H3.26622V32.2758Z" fill="#2B0B4F"/>
<path d="M15.0011 33.9316C14.8781 33.9429 14.7541 33.9242 14.6398 33.8772C14.5255 33.8301 14.4242 33.7561 14.3445 33.6613C14.1884 33.3906 14.1235 33.0765 14.1593 32.7658L14.193 29.2854C14.1967 28.9205 14.1514 28.5568 14.0583 28.2041C13.9765 27.8947 13.8396 27.6027 13.6542 27.3421C13.4668 27.0876 13.2289 26.8747 12.9555 26.717C12.6377 26.5361 12.2942 26.4051 11.9369 26.3287C11.5 26.234 11.0539 26.1886 10.6069 26.1935C10.2522 26.1933 9.89795 26.2158 9.54617 26.2608C9.21381 26.303 8.88473 26.368 8.56124 26.4554C8.26122 26.5369 7.96613 26.6357 7.67737 26.7511L7.47527 28.1872C7.75587 28.086 8.02248 28.0015 8.27502 27.9337C8.52757 27.866 8.77172 27.8097 9.00743 27.7648C9.23839 27.7206 9.47167 27.6897 9.70614 27.6722C9.93586 27.6553 10.1631 27.6467 10.388 27.6465C10.7313 27.6393 11.074 27.6791 11.4066 27.7648C11.6493 27.8257 11.8724 27.948 12.0548 28.1199C12.2172 28.2869 12.3333 28.4937 12.3915 28.7197C12.4633 28.9982 12.4973 29.2852 12.4925 29.5729L12.4905 29.9967L10.5227 30.1304C9.84959 30.1493 9.18647 30.2984 8.56967 30.5694C8.10821 30.7722 7.70977 31.0962 7.41635 31.5071C7.16743 31.8729 7.03534 32.306 7.03758 32.7489C7.03447 33.1646 7.13574 33.5744 7.33216 33.9403C7.53821 34.316 7.84813 34.624 8.22453 34.827C8.68382 35.0668 9.19709 35.1833 9.7145 35.165C10.1993 35.1761 10.6818 35.096 11.1372 34.9287C11.5308 34.7741 11.891 34.5446 12.1979 34.2529C12.3144 34.1409 12.4249 34.0227 12.529 33.899C12.5617 34.074 12.6233 34.2422 12.7114 34.3968C12.8616 34.6554 13.0922 34.8572 13.368 34.9712C13.6728 35.0942 13.9992 35.1545 14.3277 35.1486C14.4287 35.1486 14.5269 35.1455 14.6224 35.1402C14.716 35.1345 14.809 35.1203 14.9001 35.0977C14.9899 35.0751 15.071 35.0557 15.1442 35.0385C15.2102 35.0239 15.2749 35.0041 15.3378 34.9794L15.5231 33.8477C15.4301 33.8796 15.3342 33.9022 15.2369 33.9153C15.1587 33.9255 15.08 33.931 15.0011 33.9316ZM12.1979 33.1713C12.0153 33.3162 11.8178 33.4409 11.6086 33.5433C11.4002 33.6449 11.1795 33.7187 10.952 33.7629C10.7162 33.8084 10.4766 33.831 10.2365 33.8302C9.96205 33.8382 9.68917 33.7863 9.4367 33.6782C9.23125 33.5889 9.05801 33.4386 8.94009 33.2476C8.82344 33.0451 8.76512 32.8141 8.7717 32.5802C8.75544 32.2985 8.83239 32.0193 8.99058 31.7859C9.17393 31.5713 9.42233 31.4229 9.69771 31.3635C10.1278 31.262 10.5692 31.2167 11.0109 31.2286H12.4852L12.4777 32.9055C12.3921 33.0018 12.2985 33.091 12.1979 33.1713Z" fill="#2B0B4F"/>
<path d="M23.4864 27.5789L23.2843 26.3791H16.7855L16.5834 27.7307H21.4727L16.4322 33.8468L16.6343 34.9957H23.5035L23.6887 33.6272H18.5427L23.4864 27.5789Z" fill="#2B0B4F"/>
<path d="M27.0279 33.6275L31.9722 27.5792L31.7699 26.3794H25.2711L25.069 27.731H29.958L24.9175 33.8471L25.1195 34.996H31.9887L32.1739 33.6275H27.0279Z" fill="#2B0B4F"/>
</svg>

<svg xmlns="http://www.w3.org/2000/svg" viewBox="0 0 35 41"><path fill="#0A2343" d="M0 17.998V6h3.937v12H0Zm9.294-10.09 2.264 10.09H7.25L4.545 6h2.417a2.276 2.276 0 0 1 1.513.55c.42.346.71.826.819 1.36Zm2.855 10.09V6h3.938v12h-3.938Zm6.912-7.436a2.381 2.381 0 0 1-2.078-1.192 2.345 2.345 0 0 1-.322-1.208 2.301 2.301 0 0 1 .321-1.2 2.41 2.41 0 0 1 3.278-.861c.356.21.653.506.862.862.215.363.326.778.321 1.2a2.35 2.35 0 0 1-.321 1.208 2.4 2.4 0 0 1-.862.87 2.302 2.302 0 0 1-1.2.321Zm2.99 7.436V6h3.938v12h-3.937Zm8.923-5.442c.01.012.095.15.253.414.158.265.364.603.617 1.014a309.436 309.436 0 0 1 1.597 2.62c.247.411.529.876.845 1.394H29.96c-.27-.44-.516-.836-.736-1.191-.22-.355-.453-.738-.7-1.15-.248-.41-.493-.81-.736-1.2a60.12 60.12 0 0 1-.625-1.022 18.04 18.04 0 0 0-.363-.591 1.747 1.747 0 0 1-.287-.845c.016-.29.11-.57.27-.812.067-.112.191-.312.371-.6a182.106 182.106 0 0 0 1.37-2.23l.7-1.158.736-1.2h4.326l-3.346 5.459a1.079 1.079 0 0 0-.17.54c.012.203.082.397.203.558Z"/><path fill="#2B0B4F" d="M3.266 32.276c.003.196-.03.391-.1.574-.064.163-.162.31-.287.431-.13.122-.285.215-.455.27-.195.065-.4.096-.606.093-.134 0-.26-.005-.379-.017a7.602 7.602 0 0 1-.707-.101A8.952 8.952 0 0 1 0 33.357l.135 1.52c.157.046.308.088.454.127.146.04.292.073.438.102.15.028.302.048.455.059.157.01.33.017.521.017.39.006.778-.042 1.154-.144.306-.084.595-.224.85-.414a2.39 2.39 0 0 0 .58-.633c.154-.246.267-.514.338-.795.074-.295.11-.599.109-.904V23H3.266v9.276ZM15.001 33.932a.766.766 0 0 1-.656-.27 1.459 1.459 0 0 1-.186-.896l.034-3.48a4.075 4.075 0 0 0-.135-1.082 2.66 2.66 0 0 0-.404-.862 2.287 2.287 0 0 0-.698-.625 3.567 3.567 0 0 0-1.02-.388 5.97 5.97 0 0 0-1.33-.136c-.354 0-.708.023-1.06.068a7.303 7.303 0 0 0-.985.194c-.3.082-.595.18-.884.296l-.202 1.436a10.037 10.037 0 0 1 1.532-.422c.231-.044.465-.075.7-.093.229-.017.456-.025.681-.026.343-.007.686.033 1.019.119.242.06.465.183.648.355.162.167.278.374.337.6.071.278.105.565.1.853l-.002.424-1.967.133a5.22 5.22 0 0 0-1.953.44c-.462.202-.86.526-1.154.937a2.188 2.188 0 0 0-.378 1.242 2.48 2.48 0 0 0 .294 1.191c.206.376.516.684.893.887.459.24.972.356 1.49.338.484.011.967-.069 1.422-.236a3.28 3.28 0 0 0 1.06-.676c.117-.112.228-.23.332-.354.033.175.094.343.182.498.15.258.381.46.657.574.305.123.631.184.96.178.1 0 .199-.004.294-.009.094-.005.187-.02.278-.042l.244-.06c.066-.014.13-.034.194-.059l.185-1.131a1.498 1.498 0 0 1-.286.067c-.078.01-.157.016-.236.017Zm-2.803-.76c-.183.144-.38.269-.59.371-.208.102-.428.176-.656.22a3.711 3.711 0 0 1-.716.067 1.892 1.892 0 0 1-.8-.152 1.098 1.098 0 0 1-.496-.43 1.266 1.266 0 0 1-.168-.668c-.017-.282.06-.56.219-.794.183-.215.431-.363.707-.423.43-.101.871-.146 1.313-.134h1.474l-.007 1.677c-.086.096-.18.185-.28.265ZM23.486 27.579l-.202-1.2h-6.498l-.203 1.352h4.89l-5.04 6.116.201 1.149h6.87l.185-1.369h-5.146l4.943-6.048ZM27.028 33.627l4.944-6.048-.202-1.2H25.27l-.202 1.352h4.889l-5.04 6.116.201 1.149h6.87l.185-1.369h-5.146Z"/></svg>
